X:49
T:Cottagers,The. GS.049
T:Trip to the Cottage,aka. GS.049
M:6/8
L:1/8
Q:3/8=120
S:George Spencer m/s, Leeds,1831
R:.Jig
O:England
A:Leeds
N:Title could be â€˜The Cottagersâ€™ â€“ possibly itâ€™s a version of â€˜The Trip
N:to the Cottageâ€™
H:1831
Z:vmp.Cherri Graebe
K:G major
d | dBB BGG | cAA AFF | DGG FAA | GBB ABc | !
dBB BGG | cAA AFD | DGG FAA | BGG G2 :|!
d | gfe d2 B | edc Bcd | ecA dBG | FAG FED |!
gfe d2 B | edc Bcd | efg fag | ge^c â€œDCâ€d2 |]

